!!!!SEGMENT: pl-wumfc--n18053--001-009_noskowski-zygmunt--livia-quintilla-akt-pierwszy-scena-iv.krn
!!!cenid: 18xx:4225
!!!COM: Noskowski, Zygmunt
!!!COM-rismID: pe106604
!!!CDT: 1846/05/02-1909/07/23
!!!CNT: Polish
!!!OPR: Livia Quintilla
!!!OTL: Akt pierwszy - Scena IV
!!!OMV: 009
!!!PDT: 1898
!!!AGN: Secular; Opera
!!!YEC: Copyright 2022 Narodowy Instytut Fryderyka Chopina (https://polishscores.org)
!!!YEM: License CC-BY-4.0 (https://creativecommons.org/licenses/by/4.0)
!!!SMS-siglum: PL-Wumfc
!!!SMS-shelfmark: N18053
!!!SMS-shelfwork: 001-009 M
!!!SMS-variant:
!!!SMS-altvar:
!!!NIFC-rismSourceID: 1001161204
!!!NIFC-rismChildID: 1001161204
!!!NIFC-islandoraID: pl-wumfc:1491
!!!URL-pdf-islandora: https://repozytorium.nifc.pl/islandora/object/pl-wumfc:1491/datastream/PDF/view
!!!URL-scan: https://polish.musicsources.pl/pl/lokalizacje/galeria/druki-muzyczne/11843/36 @EN{Scan on Polish Music Sources Website} @PL{Skany w portalu Dziedzictwo Muzyki Polskiej w otwartym dostępie}
!!!IIIF:
!!!ONB-nifc: Skany 0036
!!!AIN: 1 barit 1 bass 1 piano
!!!key: b
**kern	**kern	**dynam	**kern	**text	**dynam	**kern	**text	**dynam
*part3	*part3	*part3	*part2	*part2	*part2	*part1	*part1	*part1
*staff4	*staff3	*staff3/4	*staff2	*staff2	*	*staff1	*staff1	*
*I"PIANO.	*I"PIANO.	*	*I"Proculus	*	*	*I"Silva	*	*
*I'	*I'	*	*I'P.	*	*	*I'S.	*	*
*Ipiano	*Ipiano	*	*Ibarit	*	*	*Ibass	*	*
*ICklav	*ICklav	*	*ICvox	*	*	*ICvox	*	*
*clefF4	*clefG2	*	*clefF4	*	*	*clefF4	*	*
*k[b-e-a-d-g-]	*k[b-e-a-d-g-]	*	*k[b-e-a-d-g-]	*	*	*k[b-e-a-d-g-]	*	*
*b:	*b:	*	*b:	*	*	*b:	*	*
*M2/2	*M2/2	*	*M2/2	*	*	*M2/2	*	*
*met(c|)	*met(c|)	*	*met(c|)	*	*	*met(c|)	*	*
=1	=1	=1	=1	=1	=1	=1	=1	=1
*	*clefF4	*	*	*	*	*	*	*
!	!	!	!	!	!	!LO:TX:a:t=Silva	!	!
!	!LO:TX:a:B:t=Moderato.	!	!	!	!	!LO:TX:a:B:t=Moderato.	!	!
(2DD-/	(2D-\	pp	1ryy	.	.	1r	.	.
4AAAn/	4AAn/	.	.	.	.	.	.	.
4DD-/	4D-\	.	.	.	.	.	.	.
=2	=2	=2	=2	=2	=2	=2	=2	=2
!	!	!	!	!	!	!LO:TX:a:t=Uchyla zwolna zasłonę w głębi i patrzy	!	!
4AAAn/	4AAn/	.	1ryy	.	.	1r	.	.
4BBB-/	4BB-/	.	.	.	.	.	.	.
4FF/	4F\	.	.	.	.	.	.	.
4EE-/)	4E-\)	.	.	.	.	.	.	.
=3	=3	=3	=3	=3	=3	=3	=3	=3
(2DD-/	(2D-\	.	1ryy	.	.	1r	.	.
4AAAn/	4AAn/	.	.	.	.	.	.	.
4DD-/	4D-\	.	.	.	.	.	.	.
=4	=4	=4	=4	=4	=4	=4	=4	=4
4AAAn/	4AAn/	.	1ryy	.	.	1r	.	.
4BBB-/	4BB-/	.	.	.	.	.	.	.
4GGG-/	4GG-/	.	.	.	.	.	.	.
4FFF/)	4FF/)	.	.	.	.	.	.	.
=5||	=5||	=5||	=5||	=5||	=5||	=5||	=5||	=5||
*M3/4	*M3/4	*	*M3/4	*	*	*M3/4	*	*
[2.EE-/	[2.c [2.Gn\	p	2.ryy	.	.	2.r	.	.
=6	=6	=6	=6	=6	=6	=6	=6	=6
2.EE-/_	2.c_ 2.G\_	.	2.ryy	.	.	4r	.	.
.	.	.	.	.	.	4Gn\	U	p
.	.	.	.	.	.	4G\	nóg	.
=7	=7	=7	=7	=7	=7	=7	=7	=7
2.EE-/_	2.c_ 2.G\_	.	2.ryy	.	.	2c\	Li-	.
.	.	.	.	.	.	(8B-\L	-wii	.
.	.	.	.	.	.	8A-\J)	.	.
=8	=8	=8	=8	=8	=8	=8	=8	=8
2.EE-/]	2.c] 2.G\]	.	2.ryy	.	.	(4.Gn\	śpie-	.
.	.	.	.	.	.	8E-\)	.	.
.	.	.	.	.	.	4C/	-wak	.
!!LO:LB:g=original
=9	=9	=9	=9	=9	=9	=9	=9	=9
[2.DDn/	[2.Bn [2.F\	.	2.ryy	.	.	4A-\	mło-	.
.	.	.	.	.	.	4Gn\	-dy	.
.	.	.	.	.	.	4r	.	.
=10	=10	=10	=10	=10	=10	=10	=10	=10
2.DD/]	2.B] 2.F\]	.	2.ryy	.	.	2.r	.	.
=11	=11	=11	=11	=11	=11	=11	=11	=11
[2.EE-/	[2.B-X [2.G-X\	.	2.ryy	.	.	2.r	.	.
=12	=12	=12	=12	=12	=12	=12	=12	=12
2.EE-/_	2.B-] 2.G-\]	.	2.ryy	.	.	2G-X\	O-	.
.	.	.	.	.	.	8Dn\	-na	.
.	.	.	.	.	.	8E-\	mi-	.
=13	=13	=13	=13	=13	=13	=13	=13	=13
2.EE-/_	2.c 2.G- 2.C\	.	2.ryy	.	.	(4c\	-ło-	.
.	.	.	.	.	.	4B-\)	.	.
.	.	.	.	.	.	4G-\	-śnie	.
=14	=14	=14	=14	=14	=14	=14	=14	=14
2.EE-/_	2An 2F 2C\	.	2.ryy	.	.	4F\	tu-	.
.	.	.	.	.	.	4C/	-li	.
.	4B- 4G- 4D-\	.	.	.	.	4G-\	się	.
=15	=15	=15	=15	=15	=15	=15	=15	=15
2.EE-/_	[2.An [2.F [2.C\	.	2.ryy	.	.	[2.F\	doń.	.
=16	=16	=16	=16	=16	=16	=16	=16	=16
4EE-/]	4A] 4F] 4C\]	.	2.ryy	.	.	4F\]	.	.
4r	4r	.	.	.	.	4r	.	.
4r;	4r;	.	.	.	.	4r;	.	.
!!LO:LB:g=original
=17||	=17||	=17||	=17||	=17||	=17||	=17||	=17||	=17||
*M2/2	*M2/2	*	*M2/2	*	*	*M2/2	*	*
*met(c|)	*met(c|)	*	*met(c|)	*	*	*met(c|)	*	*
!	!	!	!	!	!	!LO:TX:a:t=Za chwilę wchodzi głębią Proculus, za nim Silva.	!	!
(2EE-/	(2E-\	pp	1ryy	.	.	1r	.	.
4BBBn/	4BBn/	.	.	.	.	.	.	.
4EE-/	4E-\	.	.	.	.	.	.	.
=18	=18	=18	=18	=18	=18	=18	=18	=18
4BBBn/	4BBn/	<	1ryy	.	.	1r	.	.
4CC/	4C/	.	.	.	.	.	.	.
4AA-X/	4A-X\	.	.	.	.	.	.	.
4GG-/	4G-\	.	.	.	.	.	.	.
=19	=19	=19	=19	=19	=19	=19	=19	=19
4FF/	4F\	.	1ryy	.	.	1r	.	.
4EE-/	4E-\	[	.	.	.	.	.	.
4C/	4c\	.	.	.	.	.	.	.
4BB-/	4B-\	.	.	.	.	.	.	.
=20	=20	=20	=20	=20	=20	=20	=20	=20
4GGn/	4Gn\	.	1ryy	.	.	1r	.	.
4AAn/	4An\	.	.	.	.	.	.	.
4BB-/	4B-\	.	.	.	.	.	.	.
4C/)	4c\)	.	.	.	.	.	.	.
=21||	=21||	=21||	=21||	=21||	=21||	=21||	=21||	=21||
*k[]	*k[]	*	*k[]	*	*	*k[]	*	*
*C:	*C:	*	*C:	*	*	*C:	*	*
*M3/4	*M3/4	*	*M3/4	*	*	*M3/4	*	*
[2.EE/	[2.c#X [2.G#X\	p	2.ryy	.	.	2.r	.	.
=22	=22	=22	=22	=22	=22	=22	=22	=22
2.EE/_	2.c#_ 2.G#\_	.	2.ryy	.	.	4G#X\	Pa-	p
.	.	.	.	.	.	4G#\	-nie	.
.	.	.	.	.	.	4r	.	.
=23	=23	=23	=23	=23	=23	=23	=23	=23
!	!	!	!	!	!	!LO:SIC:v:o=2c\	!	!
2.EE/_	2.c#_ 2.G#\_	.	2.ryy	.	.	2c#	o-	.
.	.	.	.	.	.	(8B\L	-to	.
.	.	.	.	.	.	8A\J)	.	.
=24	=24	=24	=24	=24	=24	=24	=24	=24
2.EE/_	2.c#_ 2.G#\_	.	2.ryy	.	.	(4G#X\	są	.
.	.	.	.	.	.	4E\)	.	.
.	.	.	.	.	.	8r	.	.
.	.	.	.	.	.	8C#X/	do-	.
=25	=25	=25	=25	=25	=25	=25	=25	=25
2.EE/]	2.c#] 2.G#\]	.	2.ryy	.	.	4A\	-wo-	.
.	.	.	.	.	.	4G#X\	-dy	.
.	.	.	.	.	.	4r	.	.
!!LO:LB:g=original
=26	=26	=26	=26	=26	=26	=26	=26	=26
[2.EE/	[2.cn [2.A^^\	.	2.ryy	.	.	2.r	.	.
=27	=27	=27	=27	=27	=27	=27	=27	=27
2.EE/]	2.c] 2.A\]	.	2.ryy	.	.	4E\	Lecz	.
.	.	.	.	.	.	4r	.	.
.	.	.	.	.	.	8D\	w ta-	.
.	.	.	.	.	.	8Cn/	-jem-	.
=28	=28	=28	=28	=28	=28	=28	=28	=28
[2.EE-X/	[2.c [2.A\	.	2.ryy	.	.	8BB/	-ni-	.
.	.	.	.	.	.	8C/	-cy	.
.	.	.	.	.	.	4Fn\	mej	.
.	.	.	.	.	.	4r	.	.
=29	=29	=29	=29	=29	=29	=29	=29	=29
2.EE-/]	2.c] 2.A\]	.	2.ryy	.	.	4A\	masz	.
.	.	.	.	.	.	4G\	na	.
.	.	.	.	.	.	4F\	nią	.
=30	=30	=30	=30	=30	=30	=30	=30	=30
[2.DD/	[2.c [2.A-X^^\	.	2.ryy	.	.	4.c\	stra-	.
.	.	.	.	.	.	8D\	-szną	.
.	.	.	.	.	.	[4D\	broń!	.
=31	=31	=31	=31	=31	=31	=31	=31	=31
4DD/]	4c] 4A-\]	.	2.ryy	.	.	2D\]	.	.
4r	(4B 4G\	.	.	.	.	.	.	.
(4AA-X/	[4c 4A-X\)	.	.	.	.	4r	.	.
=32	=32	=32	=32	=32	=32	=32	=32	=32
2E-X\	4c] 4A-X\	<	2.ryy	.	.	2.r	.	.
.	(4B 4G\	.	.	.	.	.	.	.
4D\)	4c 4A-\)	[	.	.	.	.	.	.
=33	=33	=33	=33	=33	=33	=33	=33	=33
(4C/	(4c 4An\	.	2.ryy	.	.	2.r	.	.
4GG#X/	4d 4B\	>	.	.	.	.	.	.
4C/	4c 4A\	.	.	.	.	.	.	.
=34	=34	=34	=34	=34	=34	=34	=34	=34
!	!	!	!LO:TX:a:t=Proculus	!	!	!	!	!
4GG#X/	4d 4B\	.	2.r	.	.	2.ryy	.	.
4AA/	4c 4A\	]	.	.	.	.	.	.
8E\L	4B 4G#X\	.	.	.	.	.	.	.
8D\J	.	.	.	.	.	.	.	.
=35	=35	=35	=35	=35	=35	=35	=35	=35
4C/)	4c 4A\)	.	2c\	Dość,	p	2.ryy	.	.
4r	4r	.	.	.	.	.	.	.
4r	4r	.	4r	.	.	.	.	.
!!LO:LB:g=original
=36	=36	=36	=36	=36	=36	=36	=36	=36
2.r	2.r	.	[2G#X\	wę-	.	2.ryy	.	.
.	.	.	8G#\]	.	.	.	.	.
.	.	.	8A\	-żu	.	.	.	.
=37||	=37||	=37||	=37||	=37||	=37||	=37||	=37||	=37||
*M4/4	*M4/4	*	*M4/4	*	*	*M4/4	*	*
*met(c)	*met(c)	*	*met(c)	*	*	*met(c)	*	*
!	!LO:TX:a:B:t=Poco Andante.	!	!LO:TX:a:B:t=Poco Andante.	!	!	!	!	!
2r	2r	.	2c\	dość,	.	1ryy	.	.
4r	4r	.	2r	.	.	.	.	.
8.r	8.r	.	.	.	.	.	.	.
!	!	!LO:DY:rj	!	!	!	!	!	!
16FF/	16c 16A 16F\	p	.	.	.	.	.	.
=38	=38	=38	=38	=38	=38	=38	=38	=38
4..BB-X/	4..d-X 4..B-X 4..F\	.	4r	.	.	1ryy	.	.
.	.	.	4B-X\	Do-	.	.	.	.
16EE-X/	16e-X 16B- 16G-X\	.	.	.	.	.	.	.
4..FF/	4..d- 4..A-X 4..F\	.	4d-X\	-ko-	.	.	.	.
.	.	.	4A-X\	-nam	.	.	.	.
16AA-X/	16c 16A- 16E\	.	.	.	.	.	.	.
=39	=39	=39	=39	=39	=39	=39	=39	=39
4..GG-X/	4..d-X 4..B-X 4..G-X\	.	4..B-X\	re-	.	1ryy	.	.
16FF/	16f 16c 16A-X\	.	16c\	-szty	.	.	.	.
4FF/	4f 4c 4A-\	.	[2F\	sam.	.	.	.	.
4r	4r	.	.	.	.	.	.	.
*	*clefG2	*	*	*	*	*	*	*
=40	=40	=40	=40	=40	=40	=40	=40	=40
8r	1r	.	4F\]	.	.	1ryy	.	.
8FF 8FFF/	.	.	.	.	.	.	.	.
!	!	!	!LO:TX:a:t=(idzie zwolna naprzód sceny)	!	!	!	!	!
8r	.	.	4r	.	.	.	.	.
8FF 8FFF/	.	.	.	.	.	.	.	.
4r	.	.	2r	.	.	.	.	.
8FFL 8FFF/	.	.	.	.	.	.	.	.
8FFJ 8FFF/	.	.	.	.	.	.	.	.
=41	=41	=41	=41	=41	=41	=41	=41	=41
4r	1r	.	1r	.	.	1ryy	.	.
8FF 8FFF/	.	.	.	.	.	.	.	.
8r	.	.	.	.	.	.	.	.
8r	.	.	.	.	.	.	.	.
8FFL 8FFF/	.	.	.	.	.	.	.	.
8FFJ 8FFF/	.	.	.	.	.	.	.	.
8r	.	.	.	.	.	.	.	.
=42	=42	=42	=42	=42	=42	=42	=42	=42
1r	1r	.	2c\	Li-	f	1ryy	.	.
.	.	.	4F\	-vio!	.	.	.	.
.	.	.	4r	.	.	.	.	.
!!LO:PB:g=original
=43||	=43||	=43||	=43||	=43||	=43||	=43||	=43||	=43||
!	!LO:TX:a:B:t=Allegro.	!LO:DY:b=2:rj	!LO:TX:a:t=(Lykon się zrywa z kolan, Livia wstaje szybko)	!	!	!	!	!
8FF 8FFF/	8r	sf	1r	.	.	1ryy	.	.
8d> 8B>\	8g#X 8e/	f	.	.	.	.	.	.
8c>L 8A>\	8aL 8f/	.	.	.	.	.	.	.
8d>J 8B>\	8g#J 8e/	.	.	.	.	.	.	.
8dL 8B\	8g#L 8e/	.	.	.	.	.	.	.
8cJ 8A\	8aJ 8f/	.	.	.	.	.	.	.
8cL 8B-X\	8ccL 8g#X 8e/	.	.	.	.	.	.	.
8cJ 8A\	8ddJ 8a 8f/	.	.	.	.	.	.	.
=44	=44	=44	=44	=44	=44	=44	=44	=44
8cL 8A\	8eeL 8cc 8g#X\	.	1r	.	.	1ryy	.	.
8cJ 8F\	8ffJ 8cc 8a\	.	.	.	.	.	.	.
8cL 8F 8D\	8ggnL 8cc 8a\	.	.	.	.	.	.	.
8cJ 8F\	8ffJ 8cc 8a\	.	.	.	.	.	.	.
8cL 8F 8D\	8ggL 8cc 8a\	.	.	.	.	.	.	.
8cJ 8A 8C\	8aaJ 8ff 8cc 8a\	.	.	.	.	.	.	.
8cL 8A 8C\	8cccL 8aa 8ff 8cc\	.	.	.	.	.	.	.
8AJ 8AA\	8dddJ 8ccc 8ff 8dd\	.	.	.	.	.	.	.
=45||	=45||	=45||	=45||	=45||	=45||	=45||	=45||	=45||
!	!LO:TX:a:B:t=Moderato.	!	!LO:TX:a:B:t=Moderato.	!	!	!	!	!
4Gn 4E 4BBn 4GGn/	4eee 4bbn 4ggn 4ee\	sf	2r	.	.	1ryy	.	.
4r	4r	.	.	.	.	.	.	.
[2E\	[>2e/	p	4r	.	.	.	.	.
.	.	.	8.E\	Racz	p	.	.	.
.	.	.	16E\	po-	.	.	.	.
=46	=46	=46	=46	=46	=46	=46	=46	=46
*^	*^	*	*	*	*	*	*	*
1E]	4D\	1e]	4B\	.	4B\	-słu-	.	1ryy	.	.
.	(4C\	.	(4A\	.	4A\	-chać,	.	.	.	.
.	4AA\	.	4c\	.	2r	.	.	.	.	.
.	4GG\)	.	4B\)	.	.	.	.	.	.	.
*v	*v	*	*	*	*	*	*	*	*	*
*	*v	*v	*	*	*	*	*	*	*
=47	=47	=47	=47	=47	=47	=47	=47	=47
!	!LO:TX:a:B:t=Lento.	!LO:DY:rj	!LO:TX:a:B:t=Lento.	!	!	!	!	!
2C 2CC\	2e 2c 2G< 2E</	mf	4r	.	.	1ryy	.	.
!	!	!	!	!	!LO:DY:rj	!	!	!
.	.	.	4e\	Co	f	.	.	.
2GG\	2e 2B 2G< 2E</	.	4.B\	ci	.	.	.	.
.	.	.	8B\	o-	.	.	.	.
!!LO:LB:g=original
=48	=48	=48	=48	=48	=48	=48	=48	=48
2BB 2BBB\	2d#X 2B 2G#X< 2D#X</	.	4.d#X\	-znaj-	.	1ryy	.	.
.	.	.	8D#X\	-mić	.	.	.	.
[<2D#y [2DD#X\	[2d# [>2A#X< [>2F#X</	.	[2D#\	mam.	.	.	.	.
=49	=49	=49	=49	=49	=49	=49	=49	=49
4D#] 4DD#\]	4d#] 4A#<] 4F#</]	.	4D#\]	.	.	1ryy	.	.
4r	4r	.	4r	.	.	.	.	.
2r	2r	.	4r	.	.	.	.	.
.	.	.	4F#X\	Lecz	p	.	.	.
=50	=50	=50	=50	=50	=50	=50	=50	=50
1r	1r	.	4.B\	od-	.	1ryy	.	.
.	.	.	8A\	-dal	.	.	.	.
.	.	.	[2c#X\	tych,	.	.	.	.
=51	=51	=51	=51	=51	=51	=51	=51	=51
2r;	2r;	.	4c#\]	.	.	1ryy	.	.
!	!	!	!LO:TX:a:t=(Do Silwy i Lykona)	!	!	!	!	!
.	.	.	4r;	.	.	.	.	.
!	!	!LO:DY:rj	!	!	!	!	!	!
(<2AAn\	(>2c#X 2A< 2E</	p	2r	.	.	.	.	.
=52	=52	=52	=52	=52	=52	=52	=52	=52
2FFn\)	2cn 2A-X< 2Fn</)	.	2r	.	.	1ryy	.	.
2r	2r	.	4r	.	.	.	.	.
.	.	.	4A-X\	O-	.	.	.	.
=53	=53	=53	=53	=53	=53	=53	=53	=53
1r	1r	.	4.d-X\	-dejdź-	.	1ryy	.	.
.	.	.	8c\	-cie	.	.	.	.
.	.	.	[2e-X\	precz!	.	.	.	.
=54	=54	=54	=54	=54	=54	=54	=54	=54
2r	2r	.	4e-\]	.	.	1ryy	.	.
.	.	.	4r	.	.	.	.	.
!	!	!	!LO:TX:a:t=(Silva odchodzi Lykon zostaje)	!	!	!	!	!
(<2BB\	(>2d#X 2B< 2F#X</	.	2r	.	.	.	.	.
=55	=55	=55	=55	=55	=55	=55	=55	=55
2.GG\)	2.dn 2.B-X< 2.G</)	<	1r	.	.	1ryy	.	.
8.DL 8.GG\	8.dL 8.B-< 8.G</	.	.	.	.	.	.	.
16DJk 16GG\	16dJk 16B-< 16G</	.	.	.	.	.	.	.
!!LO:LB:g=original
=56	=56	=56	=56	=56	=56	=56	=56	=56
2.D 2.GG\	2.d 2.B-X< 2.G</	.	1r	.	.	1ryy	.	.
8.FL 8.FF\	8.dL 8.B-< 8.G</	.	.	.	.	.	.	.
16E-XJk 16EE-X\	16dJk 16B-< 16G</	.	.	.	.	.	.	.
=57	=57	=57	=57	=57	=57	=57	=57	=57
[1D [1DD	[1f [1d [1A	sf	2r	.	.	1ryy	.	.
!	!	!	!LO:TX:a:t=(Do Lykona)	!	!	!	!	!
.	.	.	4r	.	.	.	.	.
.	.	.	4F\	Czy	f	.	.	.
=58	=58	=58	=58	=58	=58	=58	=58	=58
2.D] 2.DD/]	2.f] 2.d] 2.A/]	.	4.B-X\	dro-	.	1ryy	.	.
.	.	.	8A\	-gę	.	.	.	.
.	.	.	4.en\	ró-	.	.	.	.
4r	4r	.	.	.	.	.	.	.
.	.	.	8d\	-zga	.	.	.	.
=59	=59	=59	=59	=59	=59	=59	=59	=59
1r	1r	.	8.B-X\	wska-	.	1ryy	.	.
.	.	.	16G#X\	-zać	.	.	.	.
.	.	.	4A\	ma	.	.	.	.
.	.	.	4r	.	.	.	.	.
.	.	.	4d\	lub	.	.	.	.
=60	=60	=60	=60	=60	=60	=60	=60	=60
4BBn 4BBBn/	4ff 4dd 4bn 4f\	sf	2f\	miecz?	.	1ryy	.	.
*	*tremolo	*	*	*	*	*	*	*
4r	32D</LLL	.	.	.	.	.	.	.
.	32F</	.	.	.	.	.	.	.
.	32D</	.	.	.	.	.	.	.
.	32F</	.	.	.	.	.	.	.
.	32D</	.	.	.	.	.	.	.
.	32F</	.	.	.	.	.	.	.
.	32D</	.	.	.	.	.	.	.
.	32F</	.	.	.	.	.	.	.
2r	32D</	.	2r	.	.	.	.	.
.	32F</	.	.	.	.	.	.	.
.	32D</	.	.	.	.	.	.	.
.	32F</	.	.	.	.	.	.	.
.	32D</	.	.	.	.	.	.	.
.	32F</	.	.	.	.	.	.	.
.	32D</	.	.	.	.	.	.	.
.	32F</	.	.	.	.	.	.	.
.	32D</	.	.	.	.	.	.	.
.	32F</	.	.	.	.	.	.	.
.	32D</	.	.	.	.	.	.	.
.	32F</	.	.	.	.	.	.	.
.	32D</	.	.	.	.	.	.	.
.	32F</	.	.	.	.	.	.	.
.	32D</	.	.	.	.	.	.	.
.	32F</JJJ	.	.	.	.	.	.	.
=61	=61	=61	=61	=61	=61	=61	=61	=61
(<1BB (1BBB	32D</LLL	>	1r	.	.	1r	.	.
.	32F</	.	.	.	.	.	.	.
.	32D</	.	.	.	.	.	.	.
.	32F</	.	.	.	.	.	.	.
.	32D</	.	.	.	.	.	.	.
.	32F</	.	.	.	.	.	.	.
.	32D</	.	.	.	.	.	.	.
.	32F</	.	.	.	.	.	.	.
.	32D</	.	.	.	.	.	.	.
.	32F</	.	.	.	.	.	.	.
.	32D</	.	.	.	.	.	.	.
.	32F</	.	.	.	.	.	.	.
.	32D</	.	.	.	.	.	.	.
.	32F</	.	.	.	.	.	.	.
.	32D</	.	.	.	.	.	.	.
.	32F</	.	.	.	.	.	.	.
.	32D</	.	.	.	.	.	.	.
.	32F</	.	.	.	.	.	.	.
.	32D</	.	.	.	.	.	.	.
.	32F</	.	.	.	.	.	.	.
.	32D</	.	.	.	.	.	.	.
.	32F</	.	.	.	.	.	.	.
.	32D</	.	.	.	.	.	.	.
.	32F</	.	.	.	.	.	.	.
.	32D</	.	.	.	.	.	.	.
.	32F</	.	.	.	.	.	.	.
.	32D</	.	.	.	.	.	.	.
.	32F</	.	.	.	.	.	.	.
.	32D</	.	.	.	.	.	.	.
.	32F</	.	.	.	.	.	.	.
.	32D</	.	.	.	.	.	.	.
.	32F</JJJ	.	.	.	.	.	.	.
=62	=62	=62	=62	=62	=62	=62	=62	=62
1BB-X) 1BBB-X)	32D</LLL	.	1r	.	.	1r	.	.
.	32F</	.	.	.	.	.	.	.
.	32D</	.	.	.	.	.	.	.
.	32F</	.	.	.	.	.	.	.
.	32D</	.	.	.	.	.	.	.
.	32F</	.	.	.	.	.	.	.
.	32D</	.	.	.	.	.	.	.
.	32F</	.	.	.	.	.	.	.
.	32D</	.	.	.	.	.	.	.
.	32F</	.	.	.	.	.	.	.
.	32D</	.	.	.	.	.	.	.
.	32F</	.	.	.	.	.	.	.
.	32D</	.	.	.	.	.	.	.
.	32F</	.	.	.	.	.	.	.
.	32D</	.	.	.	.	.	.	.
.	32F</	.	.	.	.	.	.	.
.	32D</	.	.	.	.	.	.	.
.	32F</	.	.	.	.	.	.	.
.	32D</	.	.	.	.	.	.	.
.	32F</	.	.	.	.	.	.	.
.	32D</	.	.	.	.	.	.	.
.	32F</	.	.	.	.	.	.	.
.	32D</	.	.	.	.	.	.	.
.	32F</	.	.	.	.	.	.	.
.	32D</	.	.	.	.	.	.	.
.	32F</	.	.	.	.	.	.	.
.	32D</	.	.	.	.	.	.	.
.	32F</	.	.	.	.	.	.	.
.	32D</	.	.	.	.	.	.	.
.	32F</	.	.	.	.	.	.	.
.	32D</	.	.	.	.	.	.	.
.	32F</JJJ	]]	.	.	.	.	.	.
*	*Xtremolo	*	*	*	*	*	*	*
!!LO:LB:g=original
=63||	=63||	=63||	=63||	=63||	=63||	=63||	=63||	=63||
*k[b-e-a-d-g-]	*k[b-e-a-d-g-]	*	*k[b-e-a-d-g-]	*	*	*k[b-e-a-d-g-]	*	*
*b:	*b:	*	*b:	*	*	*b:	*	*
*M3/4	*M3/4	*	*M3/4	*	*	*M3/4	*	*
*	*^	*	*	*	*	*	*	*
!	!LO:TX:a:t=(Livia daje znak Lykonowi, który odchodzi zwolna, spoglądając na Livię)	!	!	!	!	!	!	!	!
!	!LO:TX:a:B:t=Andante con moto.	!	!	!	!	!	!	!	!
2.E- 2.EE-/	4r	2.G-\	p	2.ryy	.	.	2.ryy	.	.
.	(4g-/	.	.	.	.	.	.	.	.
.	4dn/	.	.	.	.	.	.	.	.
=64	=64	=64	=64	=64	=64	=64	=64	=64	=64
2.E- 2.GG-/	4e-/	2.B-\	.	2.ryy	.	.	2.ryy	.	.
.	4f/	.	.	.	.	.	.	.	.
.	4g-/)	.	.	.	.	.	.	.	.
*	*clefF4	*	*	*	*	*	*	*	*
=65	=65	=65	=65	=65	=65	=65	=65	=65	=65
*^	*	*	*	*	*	*	*	*	*
(2E-/	2.FF\	(2c-X/	2.A-\	.	2.ryy	.	.	2.ryy	.	.
4Dn/)	.	4B-/)	.	.	.	.	.	.	.	.
*v	*v	*	*	*	*	*	*	*	*	*
=66	=66	=66	=66	=66	=66	=66	=66	=66	=66
2BB- 2BBB-/	(4G-/	2.Dn\	.	2.ryy	.	.	2.ryy	.	.
.	2F/)	.	.	.	.	.	.	.	.
4BB- 4BBB-/	.	.	.	.	.	.	.	.	.
*	*v	*v	*	*	*	*	*	*	*
=67	=67	=67	=67	=67	=67	=67	=67	=67
2.BB- 2.EE-/	4r	.	2.ryy	.	.	2.ryy	.	.
.	4r	.	.	.	.	.	.	.
.	4G-\	.	.	.	.	.	.	.
=68	=68	=68	=68	=68	=68	=68	=68	=68
*^	*^	*	*	*	*	*	*	*
2.E-/	(2GG-\	(2c-X/	2.G-\	.	2.ryy	.	.	2.ryy	.	.
.	4EE-\)	4B-/)	.	.	.	.	.	.	.	.
*v	*v	*	*	*	*	*	*	*	*	*
=69	=69	=69	=69	=69	=69	=69	=69	=69	=69
2.Dn 2.FF/	(>4A-/	2ryy	<	2.ryy	.	.	2.ryy	.	.
.	4B-/	.	.	.	.	.	.	.	.
.	4g-/)	4A-\	[[	.	.	.	.	.	.
*	*v	*v	*	*	*	*	*	*	*
=70	=70	=70	=70	=70	=70	=70	=70	=70
2.Dn 2.BBB-/	(2f 2A-\	>	2.ryy	.	.	2.ryy	.	.
.	4A- 4F\)	.	.	.	.	.	.	.
=71	=71	=71	=71	=71	=71	=71	=71	=71
2.BB- 2.BBB-/	4.Gn 4.En\	]	2.ryy	.	.	2.ryy	.	.
.	(8D#XL 8BBn/	.	.	.	.	.	.	.
.	8E 8C/	.	.	.	.	.	.	.
.	8D#J 8BB/)	.	.	.	.	.	.	.
=	=	=	=	=	=	=	=	=
*-	*-	*-	*-	*-	*-	*-	*-	*-
!!!system-decoration: <vox>{(klav)}
!!!RDF**kern: > = above
!!!RDF**kern: < = below
!!!ENC: Arkadiusz Malec
!!!END: 2022-10-19
!!!EED: Andrzej Kubiczek
!!!EEV: 2023-10-06
